assets/home-two-img/service_3_2.svg

<svg width="50" height="50" viewBox="0 0 50 50" fill="none" xmlns="http://www.w3.org/2000/svg">
<g clip-path="url(#clip0_457_25871)">
<path d="M37.5 50.0002C37.3625 50.0002 37.225 49.9731 37.0958 49.9189C36.6 49.7085 25 44.696 25 34.4502V25.7439C25 25.296 25.2854 24.9002 25.7083 24.7564L37.1667 20.8877C37.3833 20.8148 37.6187 20.8148 37.8333 20.8877L49.2917 24.7564C49.7146 24.8981 50 25.296 50 25.7439V34.4502C50 44.696 38.4 49.7085 37.9042 49.9189C37.775 49.9731 37.6375 50.0002 37.5 50.0002ZM27.0833 26.4939V34.4502C27.0833 42.3335 35.5312 46.8627 37.5 47.8106C39.4667 46.8606 47.9167 42.3127 47.9167 34.4502V26.4939L37.5 22.9752L27.0833 26.4939Z" fill="#3E66F3"/>
<path d="M36.4583 39.5835C36.4396 39.5835 36.4187 39.5835 36.4021 39.5814C36.1041 39.5648 35.8312 39.4252 35.6458 39.1919L31.4791 33.9835C31.1208 33.5335 31.1916 32.8794 31.6416 32.5189C32.0937 32.1648 32.7458 32.2356 33.1062 32.6814L36.5437 36.9794L43.0125 30.5127C43.4187 30.1064 44.0792 30.1064 44.4854 30.5127C44.8917 30.9189 44.8917 31.5794 44.4854 31.9856L37.1937 39.2773C37 39.4731 36.7333 39.5835 36.4583 39.5835Z" fill="#3E66F3"/>
<path d="M38.5417 16.6668H7.29167C3.27083 16.6668 0 13.396 0 9.37516C0 5.35433 3.27083 2.0835 7.29167 2.0835H38.5417C42.5625 2.0835 45.8333 5.35433 45.8333 9.37516C45.8333 13.396 42.5625 16.6668 38.5417 16.6668ZM7.29167 4.16683C4.41875 4.16683 2.08333 6.50225 2.08333 9.37516C2.08333 12.2481 4.41875 14.5835 7.29167 14.5835H38.5417C41.4146 14.5835 43.75 12.2481 43.75 9.37516C43.75 6.50225 41.4146 4.16683 38.5417 4.16683H7.29167Z" fill="#3E66F3"/>
<path d="M9.375 12.5C7.65208 12.5 6.25 11.0979 6.25 9.375C6.25 7.65208 7.65208 6.25 9.375 6.25C11.0979 6.25 12.5 7.65208 12.5 9.375C12.5 11.0979 11.0979 12.5 9.375 12.5ZM9.375 8.33333C8.80208 8.33333 8.33333 8.80208 8.33333 9.375C8.33333 9.94792 8.80208 10.4167 9.375 10.4167C9.94792 10.4167 10.4167 9.94792 10.4167 9.375C10.4167 8.80208 9.94792 8.33333 9.375 8.33333Z" fill="#3E66F3"/>
<path d="M19.7915 12.5C18.0686 12.5 16.6665 11.0979 16.6665 9.375C16.6665 7.65208 18.0686 6.25 19.7915 6.25C21.5144 6.25 22.9165 7.65208 22.9165 9.375C22.9165 11.0979 21.5144 12.5 19.7915 12.5ZM19.7915 8.33333C19.2186 8.33333 18.7498 8.80208 18.7498 9.375C18.7498 9.94792 19.2186 10.4167 19.7915 10.4167C20.3644 10.4167 20.8332 9.94792 20.8332 9.375C20.8332 8.80208 20.3644 8.33333 19.7915 8.33333Z" fill="#3E66F3"/>
<path d="M19.7917 29.1668H7.29167C3.27083 29.1668 0 25.896 0 21.8752C0 19.9293 0.758333 18.1002 2.1375 16.721C3.51667 15.3418 5.34583 14.5835 7.29167 14.5835H38.5417C40.1708 14.5835 41.7063 15.1064 42.975 16.096C43.4292 16.4502 43.5104 17.1043 43.1563 17.5585C42.8021 18.0106 42.1479 18.0918 41.6938 17.7397C40.7938 17.0377 39.7042 16.6668 38.5417 16.6668H7.29167C5.90417 16.6668 4.59583 17.2106 3.61042 18.1939C2.625 19.1772 2.08333 20.4877 2.08333 21.8752C2.08333 24.7481 4.41875 27.0835 7.29167 27.0835H19.7917C20.3667 27.0835 20.8333 27.5502 20.8333 28.1252C20.8333 28.7002 20.3667 29.1668 19.7917 29.1668Z" fill="#3E66F3"/>
<path d="M9.375 25C7.65208 25 6.25 23.5979 6.25 21.875C6.25 20.1521 7.65208 18.75 9.375 18.75C11.0979 18.75 12.5 20.1521 12.5 21.875C12.5 23.5979 11.0979 25 9.375 25ZM9.375 20.8333C8.80208 20.8333 8.33333 21.3021 8.33333 21.875C8.33333 22.4479 8.80208 22.9167 9.375 22.9167C9.94792 22.9167 10.4167 22.4479 10.4167 21.875C10.4167 21.3021 9.94792 20.8333 9.375 20.8333Z" fill="#3E66F3"/>
<path d="M19.7915 25C18.0686 25 16.6665 23.5979 16.6665 21.875C16.6665 20.1521 18.0686 18.75 19.7915 18.75C21.5144 18.75 22.9165 20.1521 22.9165 21.875C22.9165 23.5979 21.5144 25 19.7915 25ZM19.7915 20.8333C19.2186 20.8333 18.7498 21.3021 18.7498 21.875C18.7498 22.4479 19.2186 22.9167 19.7915 22.9167C20.3644 22.9167 20.8332 22.4479 20.8332 21.875C20.8332 21.3021 20.3644 20.8333 19.7915 20.8333Z" fill="#3E66F3"/>
<path d="M19.7917 41.6668H7.29167C3.27083 41.6668 0 38.396 0 34.3752C0 32.4293 0.758333 30.6002 2.1375 29.221C3.51667 27.8418 5.34583 27.0835 7.29167 27.0835H19.7917C20.3667 27.0835 20.8333 27.5502 20.8333 28.1252C20.8333 28.7002 20.3667 29.1668 19.7917 29.1668H7.29167C5.90417 29.1668 4.59583 29.7106 3.61042 30.6939C2.625 31.6772 2.08333 32.9877 2.08333 34.3752C2.08333 37.2481 4.41875 39.5835 7.29167 39.5835H19.7917C20.3667 39.5835 20.8333 40.0502 20.8333 40.6252C20.8333 41.2002 20.3667 41.6668 19.7917 41.6668Z" fill="#3E66F3"/>
<path d="M9.375 37.5C7.65208 37.5 6.25 36.0979 6.25 34.375C6.25 32.6521 7.65208 31.25 9.375 31.25C11.0979 31.25 12.5 32.6521 12.5 34.375C12.5 36.0979 11.0979 37.5 9.375 37.5ZM9.375 33.3333C8.80208 33.3333 8.33333 33.8021 8.33333 34.375C8.33333 34.9479 8.80208 35.4167 9.375 35.4167C9.94792 35.4167 10.4167 34.9479 10.4167 34.375C10.4167 33.8021 9.94792 33.3333 9.375 33.3333Z" fill="#3E66F3"/>
<path d="M19.7915 37.5C18.0686 37.5 16.6665 36.0979 16.6665 34.375C16.6665 32.6521 18.0686 31.25 19.7915 31.25C21.5144 31.25 22.9165 32.6521 22.9165 34.375C22.9165 36.0979 21.5144 37.5 19.7915 37.5ZM19.7915 33.3333C19.2186 33.3333 18.7498 33.8021 18.7498 34.375C18.7498 34.9479 19.2186 35.4167 19.7915 35.4167C20.3644 35.4167 20.8332 34.9479 20.8332 34.375C20.8332 33.8021 20.3644 33.3333 19.7915 33.3333Z" fill="#3E66F3"/>
</g>
<defs>
<clipPath id="clip0_457_25871">
<rect width="50" height="50" fill="white"/>
</clipPath>
</defs>
</svg>

<?xml version="1.0" encoding="utf-8"?>
<!-- Generator: Adobe Illustrator 24.0.1, SVG Export Plug-In . SVG Version: 6.00 Build 0)  -->
<svg version="1.1" id="Layer_1" xmlns="http://www.w3.org/2000/svg" xmlns:xlink="http://www.w3.org/1999/xlink" x="0px" y="0px"
	 viewBox="0 0 50 50" style="enable-background:new 0 0 50 50;" xml:space="preserve">
<style type="text/css">
	.st0{fill:#11CDBD;}
</style>
<g>
	<path class="st0" d="M37.5,50c-0.1,0-0.3,0-0.4-0.1C36.6,49.7,25,44.7,25,34.5v-8.7c0-0.4,0.3-0.8,0.7-1l11.5-3.9
		c0.2-0.1,0.5-0.1,0.7,0l11.5,3.9c0.4,0.1,0.7,0.5,0.7,1v8.7c0,10.2-11.6,15.3-12.1,15.5C37.8,50,37.6,50,37.5,50z M27.1,26.5v8
		c0,7.9,8.4,12.4,10.4,13.4c2-1,10.4-5.5,10.4-13.4v-8L37.5,23L27.1,26.5z"/>
	<path class="st0" d="M36.5,39.6C36.4,39.6,36.4,39.6,36.5,39.6c-0.4,0-0.6-0.2-0.8-0.4L31.5,34c-0.4-0.5-0.3-1.1,0.2-1.5
		c0.5-0.4,1.1-0.3,1.5,0.2l3.4,4.3l6.5-6.5c0.4-0.4,1.1-0.4,1.5,0c0.4,0.4,0.4,1.1,0,1.5l-7.3,7.3C37,39.5,36.7,39.6,36.5,39.6z"/>
	<path class="st0" d="M38.5,16.7H7.3c-4,0-7.3-3.3-7.3-7.3c0-4,3.3-7.3,7.3-7.3h31.3c4,0,7.3,3.3,7.3,7.3
		C45.8,13.4,42.6,16.7,38.5,16.7z M7.3,4.2c-2.9,0-5.2,2.3-5.2,5.2c0,2.9,2.3,5.2,5.2,5.2h31.3c2.9,0,5.2-2.3,5.2-5.2
		c0-2.9-2.3-5.2-5.2-5.2H7.3z"/>
	<path class="st0" d="M9.4,12.5c-1.7,0-3.1-1.4-3.1-3.1c0-1.7,1.4-3.1,3.1-3.1c1.7,0,3.1,1.4,3.1,3.1C12.5,11.1,11.1,12.5,9.4,12.5z
		 M9.4,8.3c-0.6,0-1,0.5-1,1s0.5,1,1,1s1-0.5,1-1S9.9,8.3,9.4,8.3z"/>
	<path class="st0" d="M19.8,12.5c-1.7,0-3.1-1.4-3.1-3.1c0-1.7,1.4-3.1,3.1-3.1s3.1,1.4,3.1,3.1C22.9,11.1,21.5,12.5,19.8,12.5z
		 M19.8,8.3c-0.6,0-1,0.5-1,1s0.5,1,1,1s1-0.5,1-1S20.4,8.3,19.8,8.3z"/>
	<path class="st0" d="M19.8,29.2H7.3c-4,0-7.3-3.3-7.3-7.3c0-1.9,0.8-3.8,2.1-5.2c1.4-1.4,3.2-2.1,5.2-2.1h31.3
		c1.6,0,3.2,0.5,4.4,1.5c0.5,0.4,0.5,1,0.2,1.5c-0.4,0.5-1,0.5-1.5,0.2c-0.9-0.7-2-1.1-3.2-1.1H7.3c-1.4,0-2.7,0.5-3.7,1.5
		c-1,1-1.5,2.3-1.5,3.7c0,2.9,2.3,5.2,5.2,5.2h12.5c0.6,0,1,0.5,1,1C20.8,28.7,20.4,29.2,19.8,29.2z"/>
	<path class="st0" d="M9.4,25c-1.7,0-3.1-1.4-3.1-3.1s1.4-3.1,3.1-3.1c1.7,0,3.1,1.4,3.1,3.1S11.1,25,9.4,25z M9.4,20.8
		c-0.6,0-1,0.5-1,1s0.5,1,1,1s1-0.5,1-1S9.9,20.8,9.4,20.8z"/>
	<path class="st0" d="M19.8,25c-1.7,0-3.1-1.4-3.1-3.1s1.4-3.1,3.1-3.1s3.1,1.4,3.1,3.1S21.5,25,19.8,25z M19.8,20.8
		c-0.6,0-1,0.5-1,1s0.5,1,1,1s1-0.5,1-1S20.4,20.8,19.8,20.8z"/>
	<path class="st0" d="M19.8,41.7H7.3c-4,0-7.3-3.3-7.3-7.3c0-1.9,0.8-3.8,2.1-5.2c1.4-1.4,3.2-2.1,5.2-2.1h12.5c0.6,0,1,0.5,1,1
		c0,0.6-0.5,1-1,1H7.3c-1.4,0-2.7,0.5-3.7,1.5c-1,1-1.5,2.3-1.5,3.7c0,2.9,2.3,5.2,5.2,5.2h12.5c0.6,0,1,0.5,1,1
		C20.8,41.2,20.4,41.7,19.8,41.7z"/>
	<path class="st0" d="M9.4,37.5c-1.7,0-3.1-1.4-3.1-3.1s1.4-3.1,3.1-3.1c1.7,0,3.1,1.4,3.1,3.1S11.1,37.5,9.4,37.5z M9.4,33.3
		c-0.6,0-1,0.5-1,1s0.5,1,1,1s1-0.5,1-1S9.9,33.3,9.4,33.3z"/>
	<path class="st0" d="M19.8,37.5c-1.7,0-3.1-1.4-3.1-3.1s1.4-3.1,3.1-3.1s3.1,1.4,3.1,3.1S21.5,37.5,19.8,37.5z M19.8,33.3
		c-0.6,0-1,0.5-1,1s0.5,1,1,1s1-0.5,1-1S20.4,33.3,19.8,33.3z"/>
</g>
</svg>
